X: 4
T: The Old Blackthorn
R: reel
M: 4/4
L: 1/8
K: Dmaj
fe|d2FABAFA|D2dcBABc|dFF1/2F1/2F AFF1/2F1/2F|GBAFD2fe|
|d2FABAFA|D2dcBABc|dFF1/2F1/2F AFF1/2F1/2F|GBAFD4|
|d2fdegfe|A2c1/2B1/2AeAc1/2B1/2A|defga2ab |afegfdec|
|d2 fdegfe |A2c1/2B1/2AeAc1/2B1/2A|defga2ab|afged4|


Tune 720	Setting 29254

